src/assets/icon/sort.svg

<svg width="28" height="28" viewBox="0 0 28 28" fill="none" xmlns="http://www.w3.org/2000/svg">
<path d="M12.8334 11C12.8334 10.7238 13.0572 10.5 13.3334 10.5H22.8334C23.1095 10.5 23.3334 10.7238 23.3334 11V12.3333C23.3334 12.6094 23.1095 12.8333 22.8334 12.8333H13.3334C13.0572 12.8333 12.8334 12.6094 12.8334 12.3333V11ZM12.8334 15.6666C12.8334 15.3905 13.0572 15.1666 13.3334 15.1666H20.5C20.7762 15.1666 21 15.3905 21 15.6666V17C21 17.2761 20.7762 17.5 20.5 17.5H13.3334C13.0572 17.5 12.8334 17.2761 12.8334 17V15.6666ZM12.8334 6.33329C12.8334 6.05715 13.0572 5.83329 13.3334 5.83329H25.1667C25.4428 5.83329 25.6667 6.05715 25.6667 6.33329V7.66663C25.6667 7.94277 25.4428 8.16663 25.1667 8.16663H13.3334C13.0572 8.16663 12.8334 7.94277 12.8334 7.66663V6.33329ZM12.8334 20.3333C12.8334 20.0572 13.0572 19.8333 13.3334 19.8333H18.1667C18.4428 19.8333 18.6667 20.0572 18.6667 20.3333V21.6666C18.6667 21.9428 18.4428 22.1666 18.1667 22.1666H13.3334C13.0572 22.1666 12.8334 21.9428 12.8334 21.6666V20.3333ZM5.83337 22.8333C5.83337 23.1094 6.05723 23.3333 6.33337 23.3333H7.66671C7.94285 23.3333 8.16671 23.1094 8.16671 22.8333V9.83329C8.16671 9.55715 8.39056 9.33329 8.66671 9.33329H10.4596C10.9051 9.33329 11.1281 8.79472 10.8132 8.47974L7.35359 5.02018C7.15833 4.82492 6.84175 4.82492 6.64649 5.02018L3.18693 8.47974C2.87194 8.79472 3.09503 9.33329 3.54048 9.33329H5.33337C5.60952 9.33329 5.83337 9.55715 5.83337 9.83329V22.8333Z" fill="#5654C9"/>
</svg>

<svg xmlns="http://www.w3.org/2000/svg" width="28" height="28" fill="none"><path fill="#5654C9" d="M12.833 11a.5.5 0 0 1 .5-.5h9.5a.5.5 0 0 1 .5.5v1.333a.5.5 0 0 1-.5.5h-9.5a.5.5 0 0 1-.5-.5V11Zm0 4.667a.5.5 0 0 1 .5-.5H20.5a.5.5 0 0 1 .5.5V17a.5.5 0 0 1-.5.5h-7.167a.5.5 0 0 1-.5-.5v-1.333Zm0-9.334a.5.5 0 0 1 .5-.5h11.834a.5.5 0 0 1 .5.5v1.334a.5.5 0 0 1-.5.5H13.333a.5.5 0 0 1-.5-.5V6.333Zm0 14a.5.5 0 0 1 .5-.5h4.834a.5.5 0 0 1 .5.5v1.334a.5.5 0 0 1-.5.5h-4.834a.5.5 0 0 1-.5-.5v-1.334Zm-7 2.5a.5.5 0 0 0 .5.5h1.334a.5.5 0 0 0 .5-.5v-13a.5.5 0 0 1 .5-.5h1.793a.5.5 0 0 0 .353-.853l-3.46-3.46a.5.5 0 0 0-.707 0l-3.46 3.46a.5.5 0 0 0 .354.853h1.793a.5.5 0 0 1 .5.5v13Z"/></svg>
